apps/symbolic/telegram-symbolic.svg

<?xml version="1.0" encoding="UTF-8" standalone="no"?>
<svg
   xmlns:dc="http://purl.org/dc/elements/1.1/"
   xmlns:cc="http://creativecommons.org/ns#"
   xmlns:rdf="http://www.w3.org/1999/02/22-rdf-syntax-ns#"
   xmlns:svg="http://www.w3.org/2000/svg"
   xmlns="http://www.w3.org/2000/svg"
   xmlns:sodipodi="http://sodipodi.sourceforge.net/DTD/sodipodi-0.dtd"
   xmlns:inkscape="http://www.inkscape.org/namespaces/inkscape"
   version="1.1"
   width="24"
   height="24"
   viewBox="0 0 24 24"
   id="svg2"
   inkscape:version="0.92.1 r15371"
   sodipodi:docname="telegram-symbolic.svg">
  <metadata
     id="metadata10">
    <rdf:RDF>
      <cc:Work
         rdf:about="">
        <dc:format>image/svg+xml</dc:format>
        <dc:type
           rdf:resource="http://purl.org/dc/dcmitype/StillImage" />
        <dc:title />
      </cc:Work>
    </rdf:RDF>
  </metadata>
  <defs
     id="defs8" />
  <sodipodi:namedview
     pagecolor="#ffffff"
     bordercolor="#666666"
     borderopacity="1"
     objecttolerance="10"
     gridtolerance="10"
     guidetolerance="10"
     inkscape:pageopacity="0"
     inkscape:pageshadow="2"
     inkscape:window-width="640"
     inkscape:window-height="480"
     id="namedview6"
     showgrid="false"
     inkscape:zoom="8"
     inkscape:cx="25.799592"
     inkscape:cy="-2.1617331"
     inkscape:current-layer="svg2" />
  <path
     style="opacity:1;fill:#bebebe;fill-opacity:1;fill-rule:evenodd;stroke:none;stroke-width:0.63770831px;stroke-linecap:butt;stroke-linejoin:miter;stroke-opacity:1"
     d="M 17.925781 4 C 17.818383 4.0014043 17.699203 4.0314969 17.568359 4.09375 L 4.6367188 10.056641 C 3.2826664 10.606008 4.5097656 11.394531 4.5097656 11.394531 L 8.4453125 14.341797 L 8.4453125 14.355469 L 17.070312 5.5683594 L 9.9277344 15.248047 L 8.6875 17.125 C 8.6502814 17.174494 8.616983 17.219086 8.5839844 17.234375 C 8.7668014 17.489437 9.1031809 17.418711 9.4179688 17.394531 L 11.566406 16.677734 L 15.580078 9.3359375 L 11.572266 16.681641 L 15.386719 19.537109 C 15.386719 19.537109 16.838247 20.878397 17.023438 18.994141 L 18.429688 4.6816406 C 18.448819 4.250867 18.247977 3.9957872 17.925781 4 z "
     id="path4183" />
</svg>

<svg xmlns="http://www.w3.org/2000/svg" viewBox="0 0 24 24">
  <path fill="#bebebe" d="M17.926 4a.865.865 0 0 0-.358.094L4.637 10.057c-1.354.549-.127 1.338-.127 1.338l3.935 2.947v.013l8.625-8.787-7.142 9.68-1.24 1.877c-.038.05-.071.094-.104.11.183.254.52.184.834.16l2.148-.717 4.014-7.342-4.008 7.346 3.815 2.855s1.451 1.341 1.636-.543L18.43 4.682c.019-.431-.182-.686-.504-.682z"/>
</svg>
